src/assets/images/posts-icon.svg

<svg viewBox="0 0 40 40" fill="none" xmlns="http://www.w3.org/2000/svg">
    <path fill="#fff" d="M8 8h24v24H8z" />
    <path clip-rule="evenodd" d="M11 11h7v7h-7v-7ZM22 11h7v7h-7v-7ZM22 22h7v7h-7v-7ZM11 22h7v7h-7v-7Z" stroke="#212121"
        stroke-opacity=".8" stroke-linecap="round" stroke-linejoin="round" />
</svg>

<svg width="40" height="40" viewBox="0 0 40 40" fill="none" xmlns="http://www.w3.org/2000/svg">
<rect width="24" height="24" transform="translate(8 8)" fill="white"/>
<path fill-rule="evenodd" clip-rule="evenodd" d="M11 11H18V18H11V11Z" stroke="#212121" stroke-opacity="0.8" stroke-linecap="round" stroke-linejoin="round"/>
<path fill-rule="evenodd" clip-rule="evenodd" d="M22 11H29V18H22V11Z" stroke="#212121" stroke-opacity="0.8" stroke-linecap="round" stroke-linejoin="round"/>
<path fill-rule="evenodd" clip-rule="evenodd" d="M22 22H29V29H22V22Z" stroke="#212121" stroke-opacity="0.8" stroke-linecap="round" stroke-linejoin="round"/>
<path fill-rule="evenodd" clip-rule="evenodd" d="M11 22H18V29H11V22Z" stroke="#212121" stroke-opacity="0.8" stroke-linecap="round" stroke-linejoin="round"/>
</svg>
